images/app-api.svg

<svg viewBox="0 0 104 104" fill="none" xmlns="http://www.w3.org/2000/svg">
<path d="M36.2302 62.9177C35.9067 66.3143 36.2302 69.8726 37.0389 73.2692L30.7309 77.9597L35.4215 87.0172L42.8616 84.5911C45.126 87.3407 47.8756 89.6051 50.7869 91.3842L49.6547 98.9861L59.3592 102.059L62.9176 95.1043C66.3141 95.4278 69.8725 95.1043 73.269 94.2956L77.9596 100.604L87.0171 95.913L84.591 88.4729C87.3406 86.2085 89.605 83.4589 91.2224 80.5475L98.986 81.6797L102.059 71.9752L95.1042 68.2552C95.4277 64.8586 95.1042 61.3003 94.2955 57.9037L100.603 53.2132L95.7512 44.1556L88.311 46.5818C86.0466 43.8322 83.297 41.5678 80.3857 39.7886L81.5179 32.025L71.8134 28.9519L68.255 36.0685C64.8585 35.7451 61.3001 36.0685 57.9036 36.8773L53.2131 30.5693L44.1555 35.2598L46.5816 42.7C43.832 44.9643 41.5676 47.714 39.9502 50.6253L32.1866 49.4931L29.1135 59.1976L36.2302 62.9177Z" fill="white"/>
<path d="M65.5479 89.1097C78.5004 89.1097 89.0005 78.6096 89.0005 65.6572C89.0005 52.7047 78.5004 42.2046 65.5479 42.2046C52.5954 42.2046 42.0953 52.7047 42.0953 65.6572C42.0953 78.6096 52.5954 89.1097 65.5479 89.1097Z" fill="#FDBF5E"/>
<path d="M59.1975 74.0777H56.7714V62.1088C56.7714 60.0062 55.154 58.3888 53.0513 58.3888C50.9487 58.3888 49.3312 60.0062 49.3312 62.1088V74.0777H46.9051V62.1088C46.9051 58.7123 49.6547 55.9626 53.0513 55.9626C56.4479 55.9626 59.1975 58.7123 59.1975 62.1088V74.0777Z" fill="#052B5D"/>
<path d="M64.8585 74.0777H62.4323V55.9626H68.902C71.4899 55.9626 73.5925 58.0653 73.5925 60.6532V62.7558C73.5925 65.3437 71.4899 67.4463 68.902 67.4463H64.8585V74.0777ZM64.8585 65.0202H68.902C70.1959 65.0202 71.1664 64.0497 71.1664 62.7558V60.6532C71.1664 59.3592 70.1959 58.3888 68.902 58.3888H64.8585V65.0202Z" fill="#052B5D"/>
<path d="M83.1353 58.3888V55.9626H76.0186V58.3888H78.4448V72.7838H76.0186V75.2099H83.1353V72.7838H80.8709V58.3888H83.1353Z" fill="#052B5D"/>
<path d="M57.9036 63.8879H48.0373V66.3141H57.9036V63.8879Z" fill="#052B5D"/>
<path d="M55.9627 17.3063C55.9627 17.1445 55.9627 16.9828 55.9627 16.821C55.9627 8.57221 49.1695 1.77905 40.9207 1.77905C35.2597 1.77905 30.4075 4.85215 27.8196 9.38092C26.0404 7.7635 23.6143 6.79305 20.8647 6.79305C15.042 6.79305 10.1897 11.6453 10.1897 17.468V17.6297C5.17574 19.5707 1.61742 24.5846 1.61742 30.4074C1.61742 38.0092 7.76361 43.9937 15.2037 43.9937H52.0809C59.6827 43.9937 65.6672 37.8475 65.6672 30.4074C65.9907 24.2612 61.7854 18.9237 55.9627 17.3063Z" fill="white"/>
<path d="M96.7216 67.2845C96.8834 64.3731 96.7216 61.4618 95.9129 58.5504L102.383 53.6982L96.3981 42.2145L88.6345 44.8024C86.6936 42.538 84.4292 40.7588 81.8414 39.1414L83.1353 31.0543L70.8429 27.1725L67.2846 34.4509C67.1229 34.4509 66.9611 34.4509 66.9611 34.4509C67.2846 33.1569 67.4463 31.863 67.4463 30.4073C67.4463 24.0994 63.4028 18.2767 57.5801 16.1741C57.2566 7.27826 49.9782 0.161621 40.9207 0.161621C35.5832 0.161621 30.5692 2.74949 27.3344 7.11652C25.3935 5.98433 23.1291 5.33736 20.8647 5.33736C14.395 5.33736 9.05754 10.3514 8.57232 16.6593C3.23484 19.2472 0 24.4229 0 30.4073C0 38.8179 6.79316 45.6111 15.2037 45.6111H41.4059C40.5972 46.7433 39.7885 47.7137 38.9798 49.0076L30.8927 47.7137L27.1726 60.1678L34.451 63.7262C34.2893 66.6375 34.451 69.5489 35.2597 72.4602L28.79 77.3125L34.7745 88.7961L42.5381 86.2083C44.479 88.4727 46.7434 90.2518 49.3313 91.8692L48.0373 99.9563L60.3297 103.838L63.888 96.5597C66.7994 96.7215 69.7107 96.398 72.6221 95.751L77.4743 102.221L88.958 96.2363L86.3701 88.4727C88.6345 86.5318 90.4137 84.2674 92.0311 81.6795L100.118 82.9734L104 70.5193L96.7216 67.2845ZM3.39658 30.4073C3.39658 25.3933 6.30793 21.0263 10.9984 19.2472L11.9689 18.6002V17.468C11.9689 12.454 16.0124 8.41045 21.0264 8.41045C23.1291 8.41045 25.2317 9.21916 26.8491 10.5131L28.3048 11.807L29.437 10.1896C31.8631 5.98433 36.2302 3.39646 41.0824 3.39646C48.5225 3.39646 54.507 9.3809 54.507 16.821V18.6002L55.6392 18.9237C60.8149 20.3793 64.3732 25.2316 64.3732 30.5691C64.3732 37.2005 59.0358 42.538 52.4044 42.538H15.3655C8.73406 42.538 3.39658 37.0388 3.39658 30.4073ZM97.8538 79.7386L90.4137 78.6064L89.7667 79.5769C88.1493 82.4882 86.0467 85.0761 83.4588 87.1787L82.6501 87.8257L85.0762 94.9423L78.4448 98.3389L73.916 92.1927L72.7838 92.5162C69.549 93.3249 66.3142 93.6484 62.9176 93.3249L61.7854 93.1632L58.5505 100.118L51.4339 97.8537L52.5661 90.4136L51.5956 89.9283C48.6843 88.3109 46.2582 86.2083 43.9938 83.6204L43.3468 82.8117L36.2302 85.2378L32.8336 78.6064L38.9798 74.0776L38.6563 72.9454C37.8476 69.7106 37.5241 66.4758 37.8476 63.0792L38.0093 61.947L31.0544 58.5504L33.3188 51.4338L40.7589 52.566L41.2442 51.5955C42.5381 49.4929 43.9938 47.3902 45.7729 45.7728H52.0809C57.9036 45.7728 62.9176 42.538 65.5054 37.6857C66.3141 37.6857 67.1229 37.6857 67.9316 37.8475L69.0638 38.0092L72.4603 31.216L79.577 33.4804L78.6065 40.7588L79.577 41.244C82.4883 42.8615 84.9145 44.9641 87.1788 47.552L87.8258 48.3607L94.9425 45.9346L98.339 52.566L92.1928 57.0947L92.5163 58.2269C93.325 61.4618 93.6485 64.6966 93.325 68.0932L93.1633 69.2254L99.9565 72.622L97.8538 79.7386Z" fill="#052B5D"/>
<path d="M39.465 31.2161H47.7138V22.9672L45.2877 25.3934L35.5832 15.5271L32.1866 18.9237L42.0529 28.7899L39.465 31.2161Z" fill="#2EA2DB"/>
<path d="M27.1726 20.3794H18.9238V28.6282L21.5117 26.2021L31.2162 36.0683L34.6128 32.6718L24.7465 22.8055L27.1726 20.3794Z" fill="#F55F44"/>
</svg>

<svg xmlns="http://www.w3.org/2000/svg" viewBox="0 0 104 104" fill="none"  xmlns:v="https://vecta.io/nano"><path d="M36.23 62.918c-.324 3.397 0 6.955.81 10.35l-6.308 4.69 4.69 9.058 7.44-2.426c2.264 2.75 5.014 5.014 7.925 6.793l-1.132 7.602 9.705 3.073 3.558-6.955c3.396.324 6.955 0 10.35-.81l4.69 6.308 9.058-4.69-2.426-7.44c2.75-2.264 5.014-5.014 6.63-7.925l7.764 1.132 3.073-9.704-6.955-3.72c.323-3.397 0-6.955-.81-10.352l6.307-4.7-4.852-9.058-7.44 2.426c-2.264-2.75-5.014-5.014-7.925-6.793l1.132-7.764-9.704-3.073-3.558 7.117c-3.396-.323-6.955 0-10.35.81l-4.7-6.308-9.058 4.69 2.426 7.44c-2.75 2.264-5.014 5.014-6.63 7.925l-7.764-1.132-3.073 9.705 7.117 3.72z" fill="#fff"/><path d="M65.548 89.1C78.5 89.1 89 78.6 89 65.657S78.5 42.205 65.548 42.205s-23.453 10.5-23.453 23.453S52.595 89.1 65.548 89.1z" fill="#fdbf5e"/><g fill="#052b5d"><path d="M59.198 74.078H56.77V62.1c0-2.103-1.617-3.72-3.72-3.72s-3.72 1.617-3.72 3.72v11.97h-2.426V62.1c0-3.397 2.75-6.146 6.146-6.146s6.146 2.75 6.146 6.146v11.97zm5.662 0h-2.426V55.963h6.47c2.588 0 4.7 2.103 4.7 4.7v2.103c0 2.588-2.103 4.7-4.7 4.7H64.86v6.63zm0-9.057h4.043c1.294 0 2.264-.97 2.264-2.264v-2.103c0-1.294-.97-2.264-2.264-2.264H64.86v6.63z"/><path d="M83.135 58.4v-2.426H76.02V58.4h2.426v14.395H76.02V75.2h7.117v-2.426H80.87V58.4h2.264zm-25.23 5.498h-9.866v2.426h9.866v-2.426z"/></g><path d="M55.963 17.306v-.485c0-8.25-6.793-15.042-15.042-15.042-5.66 0-10.513 3.073-13.1 7.602-1.78-1.617-4.205-2.588-6.955-2.588-5.823 0-10.675 4.852-10.675 10.675v.162c-5.014 1.94-8.572 6.955-8.572 12.778 0 7.602 6.146 13.586 13.586 13.586H52.08c7.602 0 13.586-6.146 13.586-13.586.324-6.146-3.882-11.484-9.704-13.1z" fill="#fff"/><path d="M96.722 67.285c.162-2.91 0-5.823-.81-8.734l6.47-4.852-5.985-11.484-7.764 2.588c-1.94-2.264-4.205-4.044-6.793-5.66l1.294-8.087-12.292-3.882-3.558 7.278h-.323c.323-1.294.485-2.588.485-4.044 0-6.308-4.043-12.13-9.866-14.233C57.257 7.278 49.978.162 40.92.162c-5.337 0-10.35 2.588-13.586 6.955-1.94-1.132-4.205-1.78-6.47-1.78-6.47 0-11.807 5.014-12.292 11.322C3.235 19.247 0 24.423 0 30.407a15.19 15.19 0 0 0 15.204 15.204h26.202c-.81 1.132-1.617 2.103-2.426 3.396l-8.087-1.294-3.72 12.454 7.278 3.558c-.162 2.91 0 5.823.81 8.734l-6.47 4.852 5.985 11.484 7.764-2.588c1.94 2.264 4.205 4.044 6.793 5.66l-1.294 8.087 12.292 3.882 3.558-7.278c2.91.162 5.823-.162 8.734-.81l4.852 6.47 11.484-5.985-2.588-7.764c2.264-1.94 4.044-4.205 5.66-6.793l8.087 1.294L104 70.52l-7.278-3.235zM3.397 30.407c0-5.014 2.91-9.38 7.602-11.16l.97-.647v-1.132c0-5.014 4.044-9.058 9.058-9.058 2.103 0 4.205.81 5.823 2.103l1.456 1.294 1.132-1.617c2.426-4.205 6.793-6.793 11.645-6.793a13.39 13.39 0 0 1 13.425 13.425v1.78l1.132.323c5.176 1.456 8.734 6.308 8.734 11.645 0 6.63-5.337 11.97-11.97 11.97h-37.04c-6.63 0-11.97-5.5-11.97-12.13zm94.457 49.33l-7.44-1.132-.647.97c-1.617 2.91-3.72 5.5-6.308 7.602l-.81.647 2.426 7.117-6.63 3.397-4.53-6.146-1.132.323c-3.235.81-6.47 1.132-9.866.81l-1.132-.162-3.235 6.955-7.117-2.264 1.132-7.44-.97-.485c-2.91-1.617-5.337-3.72-7.602-6.308l-.647-.81-7.117 2.426-3.397-6.63 6.146-4.53-.323-1.132c-.81-3.235-1.132-6.47-.81-9.866l.162-1.132-6.955-3.397 2.264-7.117 7.44 1.132.485-.97c1.294-2.103 2.75-4.205 4.53-5.823h6.308c5.823 0 10.837-3.235 13.424-8.087.81 0 1.618 0 2.426.162l1.132.162 3.397-6.793 7.117 2.264-.97 7.278.97.485c2.91 1.617 5.338 3.72 7.602 6.308l.647.81 7.117-2.426 3.397 6.63-6.146 4.53.323 1.132c.81 3.235 1.132 6.47.81 9.866l-.162 1.132 6.793 3.397-2.103 7.117z" fill="#052b5d"/><path d="M39.465 31.216h8.25v-8.25l-2.426 2.426-9.705-9.866-3.397 3.397 9.866 9.866-2.588 2.426z" fill="#2ea2db"/><path d="M27.173 20.38h-8.25v8.25l2.588-2.426 9.705 9.866 3.397-3.397-9.866-9.866 2.426-2.426z" fill="#f55f44"/></svg>
